packages/calcite-ui-icons/icons/mosaic-method-by-attribute-24.svg

<svg xmlns="http://www.w3.org/2000/svg" viewBox="0 0 24 24"><path d="M6 7h4v2h1V7h4v2h1V1H0v11h7v-1H6V7zm5-5h4v4h-4V2zM6 2h4v4H6V2zm-1 9H1V7h4v4zm0-5H1V2h4v4zm3 4v13h15V10H8zm3 12H9v-2h2v2zm0-3H9v-2h2v2zm0-3H9v-2h2v2zm5 6h-4v-2h4v2zm0-3h-4v-2h4v2zm0-3h-4v-2h4v2zm6 6h-5v-2h5v2zm0-3h-5v-2h5v2zm0-3h-5v-2h5v2zm0-3H9v-2h13v2z"/><path d="M15 7v2h-4V7h4zM6 6h4V2H6v4z" opacity=".5"/><path d="M1 2h4v4H1V2zm5 5v4h1v-1a1 1 0 0 1 1-1h2V7H6z" fill="#6f6f6f" opacity=".25"/><path fill="none" d="M0 0h24v24H0z"/></svg>

<?xml version="1.0" encoding="UTF-8"?><svg id="icons" xmlns="http://www.w3.org/2000/svg" viewBox="0 0 24 24"><defs><style>.cls-1{fill:none;}.cls-2{fill:#6f6f6f;opacity:.25;}.cls-3{opacity:.5;}</style></defs><path d="M6,7h4v2h1v-2h4v2h1V1H0v11h7v-1h-1v-4ZM11,2h4v4h-4V2ZM6,2h4v4h-4V2ZM5,11H1v-4h4v4ZM5,6H1V2h4v4ZM8,10v13h15v-13h-15ZM11,22h-2v-2h2v2ZM11,19h-2v-2h2v2ZM11,16h-2v-2h2v2ZM16,22h-4v-2h4v2ZM16,19h-4v-2h4v2ZM16,16h-4v-2h4v2ZM22,22h-5v-2h5v2ZM22,19h-5v-2h5v2ZM22,16h-5v-2h5v2ZM22,13h-13v-2h13v2Z"/><path class="cls-3" d="M15,7v2h-4v-2h4ZM6,6h4V2h-4v4Z"/><path class="cls-2" d="M1,2h4v4H1V2ZM6,7v4h1v-1c0-.55273.44727-1,1-1h2v-2h-4Z"/><rect class="cls-1" width="24" height="24"/></svg>
